X: 1
T:The Piper's Bonnet  "(c) Wm. Livingston Book 1"
M:6/8
L:1/8
Q:80
C:Arr. Colin MacClellan
S:Reel
K:HP
|: {g}e2{AGAG}A{gef}e2d|
{g}e2{AGAG}A{g}Bcd|
{g}e2{AGAG}A{gef}e2d|  !
{g}B{d}G{e}G{g}Bcd|
{g}e2{AGAG}A{g}e2{AGAG}A|
a2{AGAG}A{g}e2{AGAG}A|  !
{g}d{e}d{c}d{g}ca{g}a|
B{d}G{e}G{g}Bcd:| |:
{g}c{d}A{e}A{gcd}c2B|  !
{g}c{d}A{e}A{g}Bcd|
{gcd}c2B{g}c{d}A{e}A|
{g}B{d}G{e}G{g}Bcd|  !
{g}c{d}A{e}A{g}c{d}A{e}A|
{g}ec{d}A{g}c{d}A{e}A|
{g}d{e}d{c}d{g}ca{g}a|  !
B{d}G{e}G{g}Bcd:| |:
{g}e2{AGAG}Aa2{AGAG}A|
{g}e2{AGAG}A{g}Bcd|  !
{g}e2{AGAG}Aa2{AGAG}A|
{g}B{d}G{e}G{g}Bcd|
{g}e2{AGAG}Aa2{AGAG}A|  !
{g}e2{AGAG}Aa2{AGAG}A|
{g}d{e}d{c}d{g}ca{g}a|
B{d}G{e}G{g}Bcd:| [|  !
{g}c{d}A{e}A{g}A{d}A{e}A|
{g}A{d}A{e}A{g}c{d}A{e}A|
{g}c{d}A{e}A{g}A{d}A{e}A|  !
{g}B{d}G{e}G{g}Bcd|
{g}c{d}A{e}A{g}c{d}A{e}A|
{g}ec{d}A{g}c{d}A{e}A|  !
{g}d{e}d{c}d{g}ca{g}a|
B{d}G{e}G{g}Bcd|
{g}c{d}A{e}Ae{g}Aa|  !
c{d}A{e}A{g}Bcd|
{g}c{d}A{e}Ae{g}Aa|
B{d}G{e}G{g}Bcd|  !
{g}c{d}A{e}A{g}ec{d}A|
ac{d}A{g}ec{d}A|
{g}d{e}d{c}d{g}ca{g}a|  !
B{d}G{e}G{g}Bcd|]
